fs/arrow_counterclockwise_dashes_24_regular.svg

<svg viewBox="0 0 24 24" fill="none" xmlns="http://www.w3.org/2000/svg" height="1em" width="1em">
  <path d="M13.8711 3.19492C13.2669 3.0671 12.6409 3 12 3C11.3591 3 10.7331 3.0671 10.1289 3.19492C9.72365 3.28065 9.46463 3.67866 9.55035 4.08391C9.63608 4.48915 10.0341 4.74817 10.4393 4.66245C10.9421 4.55609 11.4641 4.5 12 4.5C12.5359 4.5 13.0579 4.55609 13.5607 4.66245C13.9659 4.74817 14.3639 4.48915 14.4496 4.08391C14.5354 3.67866 14.2764 3.28065 13.8711 3.19492ZM8.13488 4.67106C7.90897 4.32388 7.44438 4.22558 7.0972 4.4515C6.7098 4.70359 6.34305 4.98467 6 5.29169V4.25C6 3.83579 5.66421 3.5 5.25 3.5C4.83579 3.5 4.5 3.83579 4.5 4.25V7.25C4.5 7.66421 4.83579 8 5.25 8H8.25C8.66421 8 9 7.66421 9 7.25C9 6.83579 8.66421 6.5 8.25 6.5H6.90093C7.21525 6.20844 7.55458 5.94349 7.91532 5.70874C8.2625 5.48283 8.3608 5.01824 8.13488 4.67106ZM4.5 12V11.25C4.5 10.8358 4.16421 10.5 3.75 10.5C3.33579 10.5 3 10.8358 3 11.25V12C3 12.6409 3.0671 13.2669 3.19492 13.8711C3.28065 14.2764 3.67866 14.5354 4.08391 14.4496C4.48915 14.3639 4.74817 13.9659 4.66245 13.5607C4.55609 13.0579 4.5 12.5359 4.5 12ZM15.8651 4.67106C15.6392 5.01824 15.7375 5.48283 16.0847 5.70874C16.9652 6.28175 17.7182 7.03476 18.2913 7.91532C18.5172 8.2625 18.9818 8.3608 19.3289 8.13488C19.6761 7.90897 19.7744 7.44438 19.5485 7.0972C18.8614 6.04123 17.9588 5.13864 16.9028 4.4515C16.5556 4.22558 16.091 4.32388 15.8651 4.67106ZM19.3376 10.4393C19.2518 10.0341 19.5108 9.63608 19.9161 9.55035C20.3213 9.46463 20.7193 9.72365 20.8051 10.1289C20.9329 10.7331 21 11.3591 21 12C21 12.6409 20.9329 13.2669 20.8051 13.8711C20.7193 14.2764 20.3213 14.5354 19.9161 14.4496C19.5108 14.3639 19.2518 13.9659 19.3376 13.5607C19.4439 13.0579 19.5 12.5359 19.5 12C19.5 11.4641 19.4439 10.9421 19.3376 10.4393ZM4.67106 15.8651C4.32388 16.091 4.22558 16.5556 4.4515 16.9028C5.13864 17.9588 6.04123 18.8614 7.0972 19.5485C7.44438 19.7744 7.90897 19.6761 8.13488 19.3289C8.3608 18.9818 8.2625 18.5172 7.91532 18.2913C7.03476 17.7182 6.28175 16.9652 5.70874 16.0847C5.48283 15.7375 5.01824 15.6392 4.67106 15.8651ZM18.2913 16.0847C18.5172 15.7375 18.9818 15.6392 19.3289 15.8651C19.6761 16.091 19.7744 16.5556 19.5485 16.9028C18.8614 17.9588 17.9588 18.8614 16.9028 19.5485C16.5556 19.7744 16.091 19.6761 15.8651 19.3289C15.6392 18.9818 15.7375 18.5172 16.0847 18.2913C16.9652 17.7182 17.7182 16.9652 18.2913 16.0847ZM14.4496 19.9161C14.3639 19.5108 13.9659 19.2518 13.5607 19.3376C13.0579 19.4439 12.5359 19.5 12 19.5C11.4641 19.5 10.9421 19.4439 10.4393 19.3376C10.0341 19.2518 9.63608 19.5108 9.55035 19.9161C9.46463 20.3213 9.72365 20.7193 10.1289 20.8051C10.7331 20.9329 11.3591 21 12 21C12.6409 21 13.2669 20.9329 13.8711 20.8051C14.2764 20.7193 14.5354 20.3213 14.4496 19.9161Z" fill="#212121"/>
</svg>

<svg viewBox="0 0 24 24" fill="none" xmlns="http://www.w3.org/2000/svg" height="1em" width="1em">
  <path d="M13.871 3.195a9.033 9.033 0 0 0-3.742 0 .75.75 0 0 0 .31 1.467 7.534 7.534 0 0 1 3.122 0 .75.75 0 1 0 .31-1.467ZM8.135 4.67a.75.75 0 0 0-1.038-.22A9.033 9.033 0 0 0 6 5.292V4.25a.75.75 0 0 0-1.5 0v3c0 .414.336.75.75.75h3a.75.75 0 0 0 0-1.5H6.9a7.536 7.536 0 0 1 1.015-.791.75.75 0 0 0 .22-1.038ZM4.5 12v-.75a.75.75 0 0 0-1.5 0V12c0 .64.067 1.267.195 1.871a.75.75 0 1 0 1.467-.31A7.534 7.534 0 0 1 4.5 12Zm11.365-7.329a.75.75 0 0 0 .22 1.038 7.546 7.546 0 0 1 2.206 2.206.75.75 0 1 0 1.258-.818 9.043 9.043 0 0 0-2.646-2.646.75.75 0 0 0-1.038.22Zm3.473 5.768a.75.75 0 1 1 1.467-.31 9.035 9.035 0 0 1 0 3.742.75.75 0 0 1-1.467-.31 7.538 7.538 0 0 0 0-3.122ZM4.67 15.865a.75.75 0 0 0-.22 1.038 9.043 9.043 0 0 0 2.646 2.646.75.75 0 0 0 .818-1.258 7.546 7.546 0 0 1-2.206-2.206.75.75 0 0 0-1.038-.22Zm13.62.22a.75.75 0 1 1 1.258.818 9.043 9.043 0 0 1-2.646 2.646.75.75 0 0 1-.818-1.258 7.548 7.548 0 0 0 2.206-2.206Zm-3.841 3.831a.75.75 0 0 0-.89-.578 7.538 7.538 0 0 1-3.12 0 .75.75 0 1 0-.311 1.467 9.035 9.035 0 0 0 3.742 0 .75.75 0 0 0 .579-.889Z" fill="#212121"/>
</svg>
